src/assets/duotone/EmptyWalletChange.svg

<?xml version="1.0" encoding="UTF-8"?>
<svg width="24" height="24" viewBox="0 0 24 24" xmlns="http://www.w3.org/2000/svg">
 <path d="m19.48 12.95h2.02v-1.44c0-2.07-1.69-3.76-3.76-3.76h-11.48c-2.07 0-3.76 1.69-3.76 3.76v3.65c0.79-0.72 1.85-1.16 3-1.16 2.49 0 4.5 2.02 4.5 4.5 0 0.53-0.08999 1.03-0.25999 1.5-0.27 0.79-0.77001 1.47-1.4 2h9.4c2.07 0 3.76-1.69 3.76-3.76v-1.19h-1.9c-1.08 0-2.07-0.79-2.16-1.87-0.06-0.63 0.18-1.22 0.6-1.63 0.37-0.38 0.88-0.6 1.44-0.6z" opacity=".4"/>
 <path d="m5.5 14c-1.15 0-2.21 0.44-3 1.16-0.18 0.16-0.35 0.33-0.5 0.52-0.63 0.77-1 1.75-1 2.82 0 2.49 2.02 4.5 4.5 4.5 1.08 0 2.06-0.38 2.84-1 0.63-0.53 1.13-1.21 1.4-2 0.17-0.47 0.25999-0.97 0.25999-1.5 0-2.48-2.01-4.5-4.5-4.5zm2.7 3.63c0 0.31-0.25001 0.55-0.55001 0.55s-0.54998-0.24-0.54998-0.55v-0.11c0-0.12-0.09001-0.22-0.21001-0.22h-2.26c0.11 0.21 0.08999 0.47-0.09001 0.65-0.1 0.1-0.24 0.16-0.39 0.16-0.14 0-0.27999-0.06-0.37999-0.16l-0.80999-0.81c-0.05-0.05-0.09001-0.11-0.12001-0.18-0.05-0.13-0.05-0.28 0-0.42 0.03-0.06 0.07001-0.13 0.12001-0.18l0.80999-0.8c0.21-0.22 0.55999-0.22 0.76999 0 0.18 0.17 0.20001 0.44 0.09001 0.64h2.26c0.72 0 1.31 0.59 1.31 1.32v0.11zm-1.35 3.97c-0.15 0-0.29-0.05-0.39-0.16-0.18-0.17-0.20002-0.44-0.09001-0.64h-2.26c-0.72 0-1.31-0.59-1.31-1.32v-0.11c0-0.31 0.25001-0.55 0.55001-0.55s0.54998 0.24 0.54998 0.55v0.11c0 0.12 0.09001 0.22 0.21001 0.22h2.26c-0.11001-0.21-0.08999-0.47 0.09001-0.65 0.21-0.21 0.55999-0.21 0.76999 0l0.80999 0.81c0.05 0.05 0.09001 0.11 0.12001 0.18 0.05 0.13 0.05 0.28 0 0.42-0.03 0.06-0.07001 0.13-0.12001 0.18l-0.80999 0.8c-0.1 0.11-0.23999 0.16-0.37999 0.16z"/>
 <path d="m14.85 3.95v3.8h-8.59c-2.07 0-3.76 1.69-3.76 3.76v-3.67c0-1.19 0.73-2.25 1.84-2.67l7.94-3c1.24-0.46 2.57 0.45003 2.57 1.78z"/>
 <path d="m22.56 13.97v2.06c0 0.55-0.44 1-1 1.02h-1.96c-1.08 0-2.07-0.79-2.16-1.87-0.06-0.63 0.18-1.22 0.6-1.63 0.37-0.38 0.88-0.6 1.44-0.6h2.08c0.56 0.02 1 0.47 1 1.02z"/>
 <path d="m14 12.75h-7c-0.41 0-0.75-0.34-0.75-0.75s0.34-0.75 0.75-0.75h7c0.41 0 0.75 0.34 0.75 0.75s-0.34 0.75-0.75 0.75z"/>
</svg>

<svg width="24" height="24" viewBox="0 0 24 24"  xmlns="http://www.w3.org/2000/svg">
<path opacity="0.4" d="M19.48 12.95H21.5V11.51C21.5 9.44001 19.81 7.75 17.74 7.75H6.25999C4.18999 7.75 2.5 9.44001 2.5 11.51V15.16C3.29 14.44 4.35 14 5.5 14C7.99 14 10 16.02 10 18.5C10 19.03 9.91001 19.53 9.74001 20C9.47001 20.79 8.97 21.47 8.34 22H17.74C19.81 22 21.5 20.31 21.5 18.24V17.05H19.6C18.52 17.05 17.53 16.26 17.44 15.18C17.38 14.55 17.62 13.96 18.04 13.55C18.41 13.17 18.92 12.95 19.48 12.95Z" />
<path d="M5.5 14C4.35 14 3.29 14.44 2.5 15.16C2.32 15.32 2.15 15.49 2 15.68C1.37 16.45 1 17.43 1 18.5C1 20.99 3.02 23 5.5 23C6.58 23 7.56 22.62 8.34 22C8.97 21.47 9.47001 20.79 9.74001 20C9.91001 19.53 10 19.03 10 18.5C10 16.02 7.99 14 5.5 14ZM8.2 17.63C8.2 17.94 7.94999 18.18 7.64999 18.18C7.34999 18.18 7.10001 17.94 7.10001 17.63V17.52C7.10001 17.4 7.01 17.3 6.89 17.3H4.63C4.74 17.51 4.71999 17.77 4.53999 17.95C4.43999 18.05 4.29999 18.11 4.14999 18.11C4.00999 18.11 3.87 18.05 3.77 17.95L2.96001 17.14C2.91001 17.09 2.87 17.03 2.84 16.96C2.79 16.83 2.79 16.68 2.84 16.54C2.87 16.48 2.91001 16.41 2.96001 16.36L3.77 15.56C3.98 15.34 4.32999 15.34 4.53999 15.56C4.71999 15.73 4.74 16 4.63 16.2H6.89C7.61 16.2 8.2 16.79 8.2 17.52V17.63ZM6.85001 21.6C6.70001 21.6 6.56001 21.55 6.46001 21.44C6.28001 21.27 6.25999 21 6.37 20.8H4.11C3.39 20.8 2.8 20.21 2.8 19.48V19.37C2.8 19.06 3.05001 18.82 3.35001 18.82C3.65001 18.82 3.89999 19.06 3.89999 19.37V19.48C3.89999 19.6 3.99 19.7 4.11 19.7H6.37C6.25999 19.49 6.28001 19.23 6.46001 19.05C6.67001 18.84 7.02 18.84 7.23 19.05L8.03999 19.86C8.08999 19.91 8.13 19.97 8.16 20.04C8.21 20.17 8.21 20.32 8.16 20.46C8.13 20.52 8.08999 20.59 8.03999 20.64L7.23 21.44C7.13 21.55 6.99001 21.6 6.85001 21.6Z" />
<path d="M14.85 3.95V7.74999H6.25999C4.18999 7.74999 2.5 9.44 2.5 11.51V7.84002C2.5 6.65002 3.23 5.58997 4.34 5.16997L12.28 2.16997C13.52 1.70997 14.85 2.62 14.85 3.95Z" />
<path d="M22.5598 13.97V16.03C22.5598 16.58 22.1198 17.03 21.5598 17.05H19.5998C18.5198 17.05 17.5298 16.26 17.4398 15.18C17.3798 14.55 17.6198 13.96 18.0398 13.55C18.4098 13.17 18.9198 12.95 19.4798 12.95H21.5598C22.1198 12.97 22.5598 13.42 22.5598 13.97Z" />
<path d="M14 12.75H7C6.59 12.75 6.25 12.41 6.25 12C6.25 11.59 6.59 11.25 7 11.25H14C14.41 11.25 14.75 11.59 14.75 12C14.75 12.41 14.41 12.75 14 12.75Z" />
</svg>
